X: 35729
T: Saint Ruth's Bush
R: reel
M: 4/4
K: Adorian
A3B ceBA|GEDG EAGE|A3B cBcd|ea2b gedB|
eAAB ceBA|GEDG EAGE|A3B cege|dBGB ABcd|
eEdE cEBE|AEGD EAGE|A3B cBcd|eaab gedB|
eAAB ceBA|GEDG EAGE|A3B cege|dBGB ABcd||
ea a/a/g aBga|ba ~a2 bgag|eggf gage|d2 gd edBd|
eaag abga|b3 a gedB|d3 e gaba|gedB A2:|

